app/images/icons/support24.svg

<svg xmlns="http://www.w3.org/2000/svg" preserveAspectRatio="xMidYMid" width="50.875" height="53.13"><g fill="#a3bbc8" fill-rule="evenodd"><path d="M41.078 33.504c5.411 0 9.797 4.393 9.797 9.812s-4.386 9.813-9.797 9.813c-5.41 0-9.797-4.394-9.797-9.813 0-5.419 4.387-9.812 9.797-9.812z" opacity=".34"/><path d="M24.557 49.116A24.349 24.349 0 019.829 44.21a.937.937 0 111.125-1.499 22.49 22.49 0 0013.603 4.529c12.506 0 22.681-10.174 22.681-22.68 0-4.254-1.184-8.399-3.424-11.988a.939.939 0 011.592-.993 24.5 24.5 0 013.707 12.981c0 13.54-11.016 24.556-24.556 24.556zm9.32-13.722a.939.939 0 01-.938-.938v-5.5h-6.938a.94.94 0 01-.805-1.419l7.875-13.188a.938.938 0 011.742.472l.001.008v7.609a.937.937 0 11-1.875 0v-4.21l-5.286 8.852h5.286v-1.516a.938.938 0 011.875 0v1.516h2.601a.938.938 0 010 1.876h-2.601v5.5c0 .517-.42.938-.937.938zM17.469 15.767a3.973 3.973 0 00-3.969 3.969.938.938 0 01-1.875 0 5.85 5.85 0 015.844-5.844 5.851 5.851 0 015.844 5.844 12.7 12.7 0 01-3.744 9.039l-4.743 4.743h7.55a.938.938 0 01-.001 1.876h-9.813a.938.938 0 01-.663-1.601l6.344-6.343c2.06-2.06 3.195-4.8 3.195-7.714a3.974 3.974 0 00-3.969-3.969zm24.457-6.299l-4.06.096h-.023a.937.937 0 01-.022-1.874l1.843-.043a22.758 22.758 0 00-15.107-5.768c-12.506 0-22.681 10.175-22.681 22.681 0 6.14 2.415 11.891 6.799 16.193a.936.936 0 11-1.312 1.338C2.616 37.435.001 31.208.001 24.56.001 11.02 11.017.004 24.557.004c3.485 0 6.853.715 10.01 2.126a24.43 24.43 0 016.345 4.112l-.042-1.749a.939.939 0 011.875-.045l.096 4.061a.937.937 0 01-.915.959z"/></g></svg>

<svg xmlns="http://www.w3.org/2000/svg" xmlns:xlink="http://www.w3.org/1999/xlink" preserveAspectRatio="xMidYMid" width="50.875" height="53.13" viewBox="0 0 50.875 53.13">
  <defs>
    <style>
      .cls-1, .cls-2 {
        fill: #a3bbc8;
        fill-rule: evenodd;
      }

      .cls-1 {
        opacity: 0.34;
      }
    </style>
  </defs>
  <g>
    <path d="M41.078,33.504 C46.489,33.504 50.875,37.897 50.875,43.316 C50.875,48.735 46.489,53.129 41.078,53.129 C35.668,53.129 31.281,48.735 31.281,43.316 C31.281,37.897 35.668,33.504 41.078,33.504 Z" class="cls-1"/>
    <path d="M24.557,49.116 C19.197,49.116 14.104,47.419 9.829,44.210 C9.415,43.900 9.331,43.311 9.642,42.898 C9.953,42.483 10.541,42.400 10.954,42.711 C14.902,45.674 19.606,47.240 24.557,47.240 C37.063,47.240 47.238,37.066 47.238,24.560 C47.238,20.306 46.054,16.161 43.814,12.572 C43.540,12.132 43.674,11.554 44.114,11.279 C44.553,11.006 45.131,11.140 45.406,11.579 C47.831,15.467 49.113,19.956 49.113,24.560 C49.113,38.100 38.097,49.116 24.557,49.116 ZM33.877,35.394 C33.359,35.394 32.939,34.973 32.939,34.456 L32.939,28.956 L26.001,28.956 C25.663,28.956 25.352,28.774 25.185,28.481 C25.019,28.187 25.023,27.827 25.196,27.537 L33.071,14.349 C33.337,13.905 33.912,13.759 34.357,14.025 C34.648,14.198 34.810,14.505 34.813,14.821 C34.813,14.824 34.814,14.826 34.814,14.829 L34.814,22.438 C34.814,22.956 34.394,23.375 33.877,23.375 C33.359,23.375 32.939,22.956 32.939,22.438 L32.939,18.228 L27.653,27.080 L32.939,27.080 L32.939,25.564 C32.939,25.046 33.359,24.626 33.877,24.626 C34.394,24.626 34.814,25.046 34.814,25.564 L34.814,27.080 L37.415,27.080 C37.933,27.080 38.353,27.500 38.353,28.018 C38.353,28.535 37.933,28.956 37.415,28.956 L34.814,28.956 L34.814,34.456 C34.814,34.973 34.394,35.394 33.877,35.394 ZM17.469,15.767 C15.280,15.767 13.500,17.547 13.500,19.736 C13.500,20.254 13.080,20.674 12.562,20.674 C12.044,20.674 11.625,20.254 11.625,19.736 C11.625,16.514 14.246,13.892 17.469,13.892 C20.691,13.892 23.313,16.514 23.313,19.736 C23.313,23.151 21.983,26.361 19.569,28.775 L14.826,33.518 L22.376,33.518 C22.893,33.518 23.313,33.938 23.313,34.456 C23.313,34.973 22.893,35.394 22.375,35.394 L12.562,35.394 C12.183,35.394 11.841,35.165 11.696,34.815 C11.551,34.464 11.631,34.061 11.899,33.793 L18.243,27.450 C20.303,25.390 21.438,22.650 21.438,19.736 C21.438,17.547 19.657,15.767 17.469,15.767 ZM41.926,9.468 L37.866,9.564 C37.859,9.564 37.851,9.564 37.843,9.564 C37.336,9.564 36.918,9.160 36.906,8.650 C36.894,8.132 37.304,7.702 37.821,7.690 L39.664,7.647 C35.529,3.960 30.135,1.879 24.557,1.879 C12.051,1.879 1.876,12.054 1.876,24.560 C1.876,30.700 4.291,36.451 8.675,40.753 C9.045,41.115 9.051,41.709 8.688,42.078 C8.505,42.266 8.262,42.359 8.019,42.359 C7.782,42.359 7.545,42.270 7.363,42.091 C2.616,37.435 0.001,31.208 0.001,24.560 C0.001,11.020 11.017,0.004 24.557,0.004 C28.042,0.004 31.410,0.719 34.567,2.130 C36.897,3.171 39.022,4.551 40.912,6.242 L40.870,4.493 C40.858,3.975 41.268,3.546 41.785,3.533 C42.302,3.522 42.732,3.930 42.745,4.448 L42.841,8.509 C42.854,9.026 42.444,9.456 41.926,9.468 Z" class="cls-2"/>
  </g>
</svg>
